svg/u1f45b.svg

<svg viewBox="0 0 128 128" xmlns="http://www.w3.org/2000/svg">
  <g>
    <g>
      <circle cx="72.11" cy="19.16" r="8.56" fill="#E2A610"/>
      <path d="M65.19,24.18c-0.48-0.62-0.92-1.28-1.31-1.97c-0.04-0.07-0.08-0.14-0.09-0.21 c-0.02-0.12,0.02-0.24,0.05-0.36c0.24-0.82,0.32-1.68,0.25-2.52c-0.06-0.65-0.21-1.29-0.21-1.94c0-0.43,0.23-1.91,0.79-1.54 c0.48,0.32,0.83,1.41,1.02,1.93c0.49,1.36,0.61,2.86,0.34,4.28C65.88,22.66,65.6,23.45,65.19,24.18z" fill="#9E740B"/>
      <path d="M74.03,12.59c0.49,0.45,0.67,1.29,0.23,1.78c-0.27,0.3-0.79,0.52-1.44,0.47 c-1.31-0.09-2.29,0.23-3,0.51c-1.63,0.64-2.47,0.27-2.54-0.39s0.12-1.87,2.63-2.65C72.42,11.54,73.69,12.28,74.03,12.59z" fill="#FFCA28"/>
      <path d="M64.45,33.8c0,0,0.91-3.49,1.53-5.55c0.84-2.81,1.49-8,5.61-7.37c1.8,0.28,3.35,2.08,3.09,3.9 l-2.57,9.01H64.45z" fill="#FFCA28"/>
      <circle cx="55.89" cy="19.16" r="8.56" fill="#FFCA28"/>
      <path d="M56.99,13.32c0.44,0.89,0,1.81-2.02,3.03c-2.09,1.26-2.38,2.41-3.24,3.31 c-0.7,0.73-2.07,0.46-2.23-0.52c-0.38-2.3,0.73-4.11,1.78-5.2C52.88,12.27,56.05,11.44,56.99,13.32z" fill="#FFE36C"/>
      <path d="M62.77,24.24c0.3-0.41,0.73-1.09,0.9-1.53c0.05-0.12-0.34,0.03-0.69,0.36 c-0.76,0.73-2.25,2.23-5.1,3.09c-3.71,1.12-6.32-0.24-6.7-0.12c-0.39,0.13,0.98,0.81,1.18,0.9c0.71,0.32,1.47,0.55,2.24,0.67 l0.51,1.72l7.67,0l-1.15-3.82C62.03,25.15,62.42,24.72,62.77,24.24z" fill="#9E740B"/>
    </g>
    <path d="M101.46,29.34H26.54c-10.61,0-13.57,7.41-13.57,13.79v25.89h102.08V43.13 C115.04,36.75,112.07,29.34,101.46,29.34z" fill="#FFCA28"/>
    <path d="M12.96,55.51c0,0,0.75,1.37,4.1,0.38c3.35-0.99,4.9-6.92,4.9-6.92l-0.42,20.05h-8.58V55.51z" fill="#E2A610"/>
    <path d="M115.04,54.56c0,0-0.89,1.39-4.18,0.48c-3.3-0.92-4.61-7.54-4.61-7.54l0.26,21.53h8.53V54.56z" fill="#E2A610"/>
    <radialGradient id="SVGID_1_" cx="68.7827" cy="54.6768" gradientTransform="matrix(1 3.360053e-03 -1.858381e-03 0.5531 0.102 24.2052)" gradientUnits="userSpaceOnUse" r="127.3763">
      <stop offset="0.4439" stop-color="#FF689B"/>
      <stop offset="1" stop-color="#D6336B"/>
    </radialGradient>
    <path d="M112.28,63.93c-4.48-7.53-5.55-11.09-6.19-18.01c-0.42-4.54-1.72-8.05-6.17-8.05H28.08 c-4.45,0-5.75,3.52-6.17,8.05c-0.64,6.91-1.71,10.48-6.19,18.01C8.82,75.53,3.1,85.88,4.12,93.14 c1.95,13.9,14.39,29.79,24.29,29.79c3.63,0,67.54,0,71.18,0c9.91,0,22.34-15.89,24.29-29.79C124.9,85.88,119.18,75.53,112.28,63.93 z" fill="url(#SVGID_1_)"/>
    <g>
      <path d="M56.93,37.99c0,0-18.68,16.04-12.86,19.96C50.07,61.99,56.93,37.99,56.93,37.99L56.93,37.99z" fill="#D6336B"/>
      <path d="M64.2,67.99c8.14,0-0.42-30.19-0.42-30.19S56.06,67.99,64.2,67.99z" fill="#D6336B"/>
      <path d="M71.45,37.8c0,0,5.93,24.55,12.28,20.32S71.45,37.8,71.45,37.8L71.45,37.8z" fill="#D6336B"/>
    </g>
  </g>
</svg>

<svg viewBox="0 0 128 128" xmlns="http://www.w3.org/2000/svg">
  <defs>
    <radialGradient id="SVGID_1_" cx="68.966026" cy="98.438478" gradientTransform="matrix(1 0.00336 -0.001858 0.5531 0 0)" gradientUnits="userSpaceOnUse" r="127.3763">
      <stop offset="0.4439" stop-color="#FF689B"/>
      <stop offset="1" stop-color="#D6336B"/>
    </radialGradient>
  </defs>
  <path d="M80.67,19.16 A8.56 8.56 0 1 1 63.55,19.16 A8.56 8.56 0 1 1 80.67,19.16 Z" fill="#E2A610"/>
  <path d="M65.19,24.18 C64.71,23.56 64.27,22.9 63.88,22.21 C63.84,22.14 63.8,22.07 63.79,22 C63.77,21.88 63.81,21.76 63.84,21.64 C64.08,20.82 64.16,19.96 64.09,19.12 C64.03,18.47 63.88,17.83 63.88,17.18 C63.88,16.75 64.11,15.27 64.67,15.64 C65.15,15.96 65.5,17.05 65.69,17.57 C66.18,18.93 66.3,20.43 66.03,21.85 C65.88,22.66 65.6,23.45 65.19,24.18 Z" fill="#9E740B"/>
  <path d="M74.03,12.59 C74.52,13.04 74.7,13.88 74.26,14.37 C73.99,14.67 73.47,14.89 72.82,14.84 C71.51,14.75 70.53,15.07 69.82,15.35 C68.19,15.99 67.35,15.62 67.28,14.96 C67.21,14.3 67.4,13.09 69.91,12.31 C72.42,11.54 73.69,12.28 74.03,12.59 Z" fill="#FFCA28"/>
  <path d="M64.45,33.8 C64.45,33.8 65.36,30.31 65.98,28.25 C66.82,25.44 67.47,20.25 71.59,20.88 C73.39,21.16 74.94,22.96 74.68,24.78 L72.11,33.79 L64.45,33.79 Z" fill="#FFCA28"/>
  <path d="M64.45,19.16 A8.56 8.56 0 1 1 47.33,19.16 A8.56 8.56 0 1 1 64.45,19.16 Z" fill="#FFCA28"/>
  <path d="M56.99,13.32 C57.43,14.21 56.99,15.13 54.97,16.35 C52.88,17.61 52.59,18.76 51.73,19.66 C51.03,20.39 49.66,20.12 49.5,19.14 C49.12,16.84 50.23,15.03 51.28,13.94 C52.88,12.27 56.05,11.44 56.99,13.32 Z" fill="#FFE36C"/>
  <path d="M62.77,24.24 C63.07,23.83 63.5,23.15 63.67,22.71 C63.72,22.59 63.33,22.74 62.98,23.07 C62.22,23.8 60.73,25.3 57.88,26.16 C54.17,27.28 51.56,25.92 51.18,26.04 C50.79,26.17 52.16,26.85 52.36,26.94 C53.07,27.26 53.83,27.49 54.6,27.61 L55.11,29.33 L62.78,29.33 L61.63,25.51 C62.03,25.15 62.42,24.72 62.77,24.24 Z" fill="#9E740B"/>
  <path d="M101.46,29.34 L26.54,29.34 C15.93,29.34 12.97,36.75 12.97,43.13 L12.97,69.02 L115.05,69.02 L115.05,43.13 C115.04,36.75 112.07,29.34 101.46,29.34 Z" fill="#FFCA28"/>
  <path d="M12.96,55.51 C12.96,55.51 13.71,56.88 17.06,55.89 C20.41,54.9 21.96,48.97 21.96,48.97 L21.54,69.02 L12.96,69.02 L12.96,55.51 Z" fill="#E2A610"/>
  <path d="M115.04,54.56 C115.04,54.56 114.15,55.95 110.86,55.04 C107.56,54.12 106.25,47.5 106.25,47.5 L106.51,69.03 L115.04,69.03 L115.04,54.56 Z" fill="#E2A610"/>
  <path d="M112.28,63.93 C107.8,56.4 106.73,52.84 106.09,45.92 C105.67,41.38 104.37,37.87 99.92,37.87 L28.08,37.87 C23.63,37.87 22.33,41.39 21.91,45.92 C21.27,52.83 20.2,56.4 15.72,63.93 C8.82,75.53 3.1,85.88 4.12,93.14 C6.07,107.04 18.51,122.93 28.41,122.93 C32.04,122.93 95.95,122.93 99.59,122.93 C109.5,122.93 121.93,107.04 123.88,93.14 C124.9,85.88 119.18,75.53 112.28,63.93 Z" fill="url(#SVGID_1_)"/>
  <path d="M56.93,37.99 C56.93,37.99 38.25,54.03 44.07,57.95 C50.07,61.99 56.93,37.99 56.93,37.99 L56.93,37.99 Z" fill="#D6336B"/>
  <path d="M64.2,67.99 C72.34,67.99 63.78,37.8 63.78,37.8 C63.78,37.8 56.06,67.99 64.2,67.99 Z" fill="#D6336B"/>
  <path d="M71.45,37.8 C71.45,37.8 77.38,62.35 83.73,58.12 C90.08,53.89 71.45,37.8 71.45,37.8 L71.45,37.8 Z" fill="#D6336B"/>
</svg>
